X:1
T:A Scale in the Key of D: Trebles/Birl Practice
R:Reel
C:Chris Haigh - The Fiddle Channel
M:4/4
L:1/4
K:D
P: Ascending
uA vA//uA//v(A/ A2)|uB vB//uB//v(B/ B2)|uc vc//uc//(c/ c2)|ud vd//ud//v(d/ d2)|
ue ve//ue//v(e/ e2)|uf vf//uf//v(f/ f2)|ug vg//ug//(g/ g2)|ua va//ua//v(a/ a2):|
P: Descending
ua va//ua//v(a/ a2)|ug vg//ug//(g/ g2)|uf vf//uf//v(f/ f2)|ue ve//ue//v(e/ e2)|
ud vd//ud//v(d/ d2)|uc vc//uc//(c/ c2)|uB vB//uB//v(B/ B2)|uA vA//uA//v(A/ A2):|